images/16758794.svg

<?xml version="1.0" encoding="UTF-8"?>
<svg xmlns="http://www.w3.org/2000/svg" xmlns:xlink="http://www.w3.org/1999/xlink" width="300pt" height="300pt" viewBox="0 0 300 300" version="1.1">
<defs>
<g>
<symbol overflow="visible" id="glyph0-0">
<path style="stroke:none;" d="M 0.453125 1.59375 L 0.453125 -6.34375 L 4.953125 -6.34375 L 4.953125 1.59375 Z M 0.953125 1.09375 L 4.453125 1.09375 L 4.453125 -5.84375 L 0.953125 -5.84375 Z M 0.953125 1.09375 "/>
</symbol>
<symbol overflow="visible" id="glyph0-1">
<path style="stroke:none;" d="M 3.546875 -5.953125 C 2.898438 -5.953125 2.382812 -5.710938 2 -5.234375 C 1.625 -4.753906 1.4375 -4.101562 1.4375 -3.28125 C 1.4375 -2.445312 1.625 -1.789062 2 -1.3125 C 2.382812 -0.832031 2.898438 -0.59375 3.546875 -0.59375 C 4.191406 -0.59375 4.703125 -0.832031 5.078125 -1.3125 C 5.453125 -1.789062 5.640625 -2.445312 5.640625 -3.28125 C 5.640625 -4.101562 5.453125 -4.753906 5.078125 -5.234375 C 4.703125 -5.710938 4.191406 -5.953125 3.546875 -5.953125 Z M 3.546875 -6.6875 C 4.460938 -6.6875 5.195312 -6.375 5.75 -5.75 C 6.300781 -5.132812 6.578125 -4.3125 6.578125 -3.28125 C 6.578125 -2.238281 6.300781 -1.410156 5.75 -0.796875 C 5.195312 -0.179688 4.460938 0.125 3.546875 0.125 C 2.617188 0.125 1.878906 -0.179688 1.328125 -0.796875 C 0.773438 -1.410156 0.5 -2.238281 0.5 -3.28125 C 0.5 -4.3125 0.773438 -5.132812 1.328125 -5.75 C 1.878906 -6.375 2.617188 -6.6875 3.546875 -6.6875 Z M 3.546875 -6.6875 "/>
</symbol>
<symbol overflow="visible" id="glyph0-2">
<path style="stroke:none;" d="M 0.890625 -6.5625 L 1.765625 -6.5625 L 1.765625 -3.875 L 5 -3.875 L 5 -6.5625 L 5.890625 -6.5625 L 5.890625 0 L 5 0 L 5 -3.125 L 1.765625 -3.125 L 1.765625 0 L 0.890625 0 Z M 0.890625 -6.5625 "/>
</symbol>
<symbol overflow="visible" id="glyph0-3">
<path style="stroke:none;" d="M 0.890625 -6.5625 L 2.078125 -6.5625 L 4.984375 -1.078125 L 4.984375 -6.5625 L 5.84375 -6.5625 L 5.84375 0 L 4.65625 0 L 1.75 -5.484375 L 1.75 0 L 0.890625 0 Z M 0.890625 -6.5625 "/>
</symbol>
</g>
</defs>
<g id="surface39521">
<rect x="0" y="0" width="300" height="300" style="fill:rgb(100%,100%,100%);fill-opacity:1;stroke:none;"/>
<path style="fill:none;stroke-width:1.2;stroke-linecap:butt;stroke-linejoin:miter;stroke:rgb(0%,0%,0%);stroke-opacity:1;stroke-miterlimit:10;" d="M 227.453125 176.390625 L 208.808594 192.246094 "/>
<path style="fill:none;stroke-width:1.2;stroke-linecap:butt;stroke-linejoin:miter;stroke:rgb(0%,0%,0%);stroke-opacity:1;stroke-miterlimit:10;" d="M 223.046875 152.3125 L 227.453125 176.390625 "/>
<path style=" stroke:none;fill-rule:nonzero;fill:rgb(0%,0%,0%);fill-opacity:1;" d="M 185.75 184.027344 L 207.355469 196.316406 L 210.257812 188.179688 Z M 185.75 184.027344 "/>
<path style="fill:none;stroke-width:1.2;stroke-linecap:butt;stroke-linejoin:miter;stroke:rgb(0%,0%,0%);stroke-opacity:1;stroke-miterlimit:10;" d="M 185.75 184.027344 L 181.339844 159.949219 "/>
<path style="fill:none;stroke-width:1.2;stroke-linecap:butt;stroke-linejoin:miter;stroke:rgb(0%,0%,0%);stroke-opacity:1;stroke-miterlimit:10;" d="M 164.214844 195.660156 L 185.75 184.027344 "/>
<path style="fill:none;stroke-width:1.2;stroke-linecap:butt;stroke-linejoin:miter;stroke:rgb(0%,0%,0%);stroke-opacity:1;stroke-miterlimit:10;" d="M 181.339844 159.949219 L 199.988281 144.089844 "/>
<path style=" stroke:none;fill-rule:nonzero;fill:rgb(0%,0%,0%);fill-opacity:1;" d="M 181.339844 159.949219 L 157.652344 152.421875 L 156.503906 160.984375 Z M 181.339844 159.949219 "/>
<path style="fill:none;stroke-width:1;stroke-linecap:butt;stroke-linejoin:miter;stroke:rgb(0%,0%,0%);stroke-opacity:1;stroke-miterlimit:10;" d="M 199.988281 144.089844 L 199.988281 144.089844 M 202.597656 145.574219 L 202.945312 144.589844 M 205.203125 147.058594 L 205.902344 145.09375 M 207.8125 148.539062 L 208.863281 145.59375 M 210.417969 150.023438 L 211.820312 146.09375 M 213.027344 151.507812 L 214.777344 146.597656 M 215.632812 152.988281 L 217.734375 147.097656 M 218.242188 154.472656 L 220.695312 147.597656 M 220.851562 155.957031 L 223.652344 148.097656 M 221.59375 156.378906 L 224.496094 148.242188 "/>
<path style="fill:none;stroke-width:1.2;stroke-linecap:butt;stroke-linejoin:miter;stroke:rgb(0%,0%,0%);stroke-opacity:1;stroke-miterlimit:10;" d="M 195.578125 120.011719 L 199.988281 144.089844 "/>
<path style=" stroke:none;fill-rule:nonzero;fill:rgb(0%,0%,0%);fill-opacity:1;" d="M 223.046875 152.3125 L 244.492188 139.742188 L 238.894531 133.164062 Z M 223.046875 152.3125 "/>
<path style="fill:none;stroke-width:1.2;stroke-linecap:butt;stroke-linejoin:miter;stroke:rgb(0%,0%,0%);stroke-opacity:1;stroke-miterlimit:10;" d="M 240.726562 139.164062 L 252.253906 143.277344 "/>
<path style="fill:none;stroke-width:1.2;stroke-linecap:butt;stroke-linejoin:miter;stroke:rgb(100%,0%,0%);stroke-opacity:1;stroke-miterlimit:10;" d="M 252.253906 143.277344 L 263.78125 147.386719 "/>
<path style="fill:none;stroke-width:1.2;stroke-linecap:butt;stroke-linejoin:miter;stroke:rgb(0%,0%,0%);stroke-opacity:1;stroke-miterlimit:10;" d="M 242.660156 133.742188 L 254.1875 137.851562 "/>
<path style="fill:none;stroke-width:1.2;stroke-linecap:butt;stroke-linejoin:miter;stroke:rgb(100%,0%,0%);stroke-opacity:1;stroke-miterlimit:10;" d="M 254.1875 137.851562 L 265.71875 141.960938 "/>
<path style="fill:none;stroke-width:1.2;stroke-linecap:butt;stroke-linejoin:miter;stroke:rgb(0%,0%,0%);stroke-opacity:1;stroke-miterlimit:10;" d="M 241.691406 136.453125 L 237.285156 112.375 "/>
<path style=" stroke:none;fill-rule:nonzero;fill:rgb(100%,100%,100%);fill-opacity:1;" d="M 260.75 139.171875 L 268.75 139.171875 L 268.75 150.171875 L 260.75 150.171875 Z M 260.75 139.171875 "/>
<g style="fill:rgb(100%,0%,0%);fill-opacity:1;">
  <use xlink:href="#glyph0-1" x="260.75" y="147.834961"/>
</g>
<path style="fill:none;stroke-width:1.2;stroke-linecap:butt;stroke-linejoin:miter;stroke:rgb(0%,0%,0%);stroke-opacity:1;stroke-miterlimit:10;" d="M 237.285156 112.375 L 214.226562 104.15625 "/>
<path style="fill:none;stroke-width:1.2;stroke-linecap:butt;stroke-linejoin:miter;stroke:rgb(0%,0%,0%);stroke-opacity:1;stroke-miterlimit:10;" d="M 214.226562 104.15625 L 195.578125 120.011719 "/>
<path style="fill:none;stroke-width:1;stroke-linecap:butt;stroke-linejoin:miter;stroke:rgb(0%,0%,0%);stroke-opacity:1;stroke-miterlimit:10;" d="M 214.226562 104.15625 L 214.226562 104.15625 M 214.207031 101.15625 L 213.179688 101.34375 M 214.1875 98.15625 L 212.136719 98.53125 M 214.167969 95.15625 L 211.089844 95.71875 M 214.148438 92.15625 L 210.046875 92.90625 M 214.128906 89.15625 L 209 90.09375 M 214.109375 86.15625 L 207.957031 87.28125 M 214.089844 83.15625 L 206.910156 84.46875 M 214.070312 80.15625 L 205.867188 81.65625 M 214.066406 79.296875 L 205.566406 80.855469 "/>
<path style="fill:none;stroke-width:1;stroke-linecap:butt;stroke-linejoin:miter;stroke:rgb(0%,0%,0%);stroke-opacity:1;stroke-miterlimit:10;" d="M 195.578125 120.011719 L 195.578125 120.011719 M 192.972656 118.53125 L 192.621094 119.511719 M 190.363281 117.046875 L 189.664062 119.011719 M 187.753906 115.5625 L 186.707031 118.507812 M 185.148438 114.078125 L 183.746094 118.007812 M 182.539062 112.597656 L 180.789062 117.507812 M 179.933594 111.113281 L 177.832031 117.007812 M 177.324219 109.628906 L 174.875 116.503906 M 174.71875 108.148438 L 171.914062 116.003906 M 173.972656 107.722656 L 171.070312 115.859375 "/>
<path style=" stroke:none;fill-rule:nonzero;fill:rgb(100%,100%,100%);fill-opacity:1;" d="M 157.523438 106.292969 L 172.523438 106.292969 L 172.523438 117.292969 L 157.523438 117.292969 Z M 157.523438 106.292969 "/>
<g style="fill:rgb(100%,0%,0%);fill-opacity:1;">
  <use xlink:href="#glyph0-2" x="157.523438" y="114.956055"/>
  <use xlink:href="#glyph0-1" x="164.538086" y="114.956055"/>
</g>
<path style=" stroke:none;fill-rule:nonzero;fill:rgb(100%,100%,100%);fill-opacity:1;" d="M 202.816406 74.578125 L 217.816406 74.578125 L 217.816406 85.578125 L 202.816406 85.578125 Z M 202.816406 74.578125 "/>
<g style="fill:rgb(100%,0%,0%);fill-opacity:1;">
  <use xlink:href="#glyph0-2" x="202.816406" y="83.241211"/>
  <use xlink:href="#glyph0-1" x="209.831055" y="83.241211"/>
</g>
<path style="fill:none;stroke-width:1.2;stroke-linecap:butt;stroke-linejoin:miter;stroke:rgb(0%,0%,0%);stroke-opacity:1;stroke-miterlimit:10;" d="M 159.613281 155.332031 L 153.796875 144.566406 "/>
<path style="fill:none;stroke-width:1.2;stroke-linecap:butt;stroke-linejoin:miter;stroke:rgb(100%,0%,0%);stroke-opacity:1;stroke-miterlimit:10;" d="M 153.796875 144.566406 L 147.976562 133.796875 "/>
<path style="fill:none;stroke-width:1.2;stroke-linecap:butt;stroke-linejoin:miter;stroke:rgb(0%,0%,0%);stroke-opacity:1;stroke-miterlimit:10;" d="M 154.542969 158.070312 L 148.726562 147.300781 "/>
<path style="fill:none;stroke-width:1.2;stroke-linecap:butt;stroke-linejoin:miter;stroke:rgb(100%,0%,0%);stroke-opacity:1;stroke-miterlimit:10;" d="M 148.726562 147.300781 L 142.910156 136.535156 "/>
<path style="fill:none;stroke-width:1.2;stroke-linecap:butt;stroke-linejoin:miter;stroke:rgb(0%,0%,0%);stroke-opacity:1;stroke-miterlimit:10;" d="M 157.078125 156.703125 L 151.785156 167.738281 "/>
<path style="fill:none;stroke-width:1.2;stroke-linecap:butt;stroke-linejoin:miter;stroke:rgb(0%,0%,100%);stroke-opacity:1;stroke-miterlimit:10;" d="M 151.785156 167.738281 L 146.492188 178.773438 "/>
<path style=" stroke:none;fill-rule:nonzero;fill:rgb(100%,100%,100%);fill-opacity:1;" d="M 137.445312 129.664062 L 145.445312 129.664062 L 145.445312 140.664062 L 137.445312 140.664062 Z M 137.445312 129.664062 "/>
<g style="fill:rgb(100%,0%,0%);fill-opacity:1;">
  <use xlink:href="#glyph0-1" x="137.445312" y="138.327148"/>
</g>
<path style="fill:none;stroke-width:1.2;stroke-linecap:butt;stroke-linejoin:miter;stroke:rgb(0%,0%,100%);stroke-opacity:1;stroke-miterlimit:10;" d="M 146.492188 178.773438 L 155.351562 187.21875 "/>
<path style="fill:none;stroke-width:1.2;stroke-linecap:butt;stroke-linejoin:miter;stroke:rgb(0%,0%,0%);stroke-opacity:1;stroke-miterlimit:10;" d="M 155.351562 187.21875 L 164.214844 195.660156 "/>
<path style="fill:none;stroke-width:1.2;stroke-linecap:butt;stroke-linejoin:miter;stroke:rgb(0%,0%,100%);stroke-opacity:1;stroke-miterlimit:10;" d="M 146.492188 178.773438 L 134.453125 180.976562 "/>
<path style="fill:none;stroke-width:1.2;stroke-linecap:butt;stroke-linejoin:miter;stroke:rgb(0%,0%,0%);stroke-opacity:1;stroke-miterlimit:10;" d="M 134.453125 180.976562 L 122.414062 183.183594 "/>
<path style=" stroke:none;fill-rule:nonzero;fill:rgb(100%,100%,100%);fill-opacity:1;" d="M 143.492188 173.273438 L 150.492188 173.273438 L 150.492188 184.273438 L 143.492188 184.273438 Z M 143.492188 173.273438 "/>
<g style="fill:rgb(0%,0%,100%);fill-opacity:1;">
  <use xlink:href="#glyph0-3" x="143.492188" y="181.936523"/>
</g>
<path style="fill:none;stroke-width:1.2;stroke-linecap:butt;stroke-linejoin:miter;stroke:rgb(0%,0%,0%);stroke-opacity:1;stroke-miterlimit:10;" d="M 161.359375 195.277344 L 159.734375 207.410156 "/>
<path style="fill:none;stroke-width:1.2;stroke-linecap:butt;stroke-linejoin:miter;stroke:rgb(100%,0%,0%);stroke-opacity:1;stroke-miterlimit:10;" d="M 159.734375 207.410156 L 158.113281 219.542969 "/>
<path style="fill:none;stroke-width:1.2;stroke-linecap:butt;stroke-linejoin:miter;stroke:rgb(0%,0%,0%);stroke-opacity:1;stroke-miterlimit:10;" d="M 167.066406 196.042969 L 165.445312 208.175781 "/>
<path style="fill:none;stroke-width:1.2;stroke-linecap:butt;stroke-linejoin:miter;stroke:rgb(100%,0%,0%);stroke-opacity:1;stroke-miterlimit:10;" d="M 165.445312 208.175781 L 163.820312 220.304688 "/>
<path style=" stroke:none;fill-rule:nonzero;fill:rgb(100%,100%,100%);fill-opacity:1;" d="M 156.964844 214.421875 L 164.964844 214.421875 L 164.964844 225.421875 L 156.964844 225.421875 Z M 156.964844 214.421875 "/>
<g style="fill:rgb(100%,0%,0%);fill-opacity:1;">
  <use xlink:href="#glyph0-1" x="156.964844" y="223.084961"/>
</g>
<path style="fill:none;stroke-width:1.2;stroke-linecap:butt;stroke-linejoin:miter;stroke:rgb(0%,0%,0%);stroke-opacity:1;stroke-miterlimit:10;" d="M 122.414062 183.183594 L 106.558594 164.535156 "/>
<path style="fill:none;stroke-width:1.2;stroke-linecap:butt;stroke-linejoin:miter;stroke:rgb(0%,0%,0%);stroke-opacity:1;stroke-miterlimit:10;" d="M 106.558594 164.535156 L 82.480469 168.945312 "/>
<path style="fill:none;stroke-width:1.2;stroke-linecap:butt;stroke-linejoin:miter;stroke:rgb(0%,0%,0%);stroke-opacity:1;stroke-miterlimit:10;" d="M 103.113281 159.3125 L 83.847656 162.839844 "/>
<path style="fill:none;stroke-width:1.2;stroke-linecap:butt;stroke-linejoin:miter;stroke:rgb(0%,0%,0%);stroke-opacity:1;stroke-miterlimit:10;" d="M 114.777344 141.476562 L 106.558594 164.535156 "/>
<path style="fill:none;stroke-width:1.2;stroke-linecap:butt;stroke-linejoin:miter;stroke:rgb(0%,0%,0%);stroke-opacity:1;stroke-miterlimit:10;" d="M 82.480469 168.945312 L 66.621094 150.296875 "/>
<path style="fill:none;stroke-width:1.2;stroke-linecap:butt;stroke-linejoin:miter;stroke:rgb(0%,0%,0%);stroke-opacity:1;stroke-miterlimit:10;" d="M 66.621094 150.296875 L 74.839844 127.242188 "/>
<path style="fill:none;stroke-width:1.2;stroke-linecap:butt;stroke-linejoin:miter;stroke:rgb(0%,0%,0%);stroke-opacity:1;stroke-miterlimit:10;" d="M 62.019531 146.058594 L 68.59375 127.613281 "/>
<path style="fill:none;stroke-width:1.2;stroke-linecap:butt;stroke-linejoin:miter;stroke:rgb(100%,0%,0%);stroke-opacity:1;stroke-miterlimit:10;" d="M 42.152344 149.605469 L 54.386719 149.949219 "/>
<path style="fill:none;stroke-width:1.2;stroke-linecap:butt;stroke-linejoin:miter;stroke:rgb(0%,0%,0%);stroke-opacity:1;stroke-miterlimit:10;" d="M 54.386719 149.949219 L 66.621094 150.296875 "/>
<path style="fill:none;stroke-width:1.2;stroke-linecap:butt;stroke-linejoin:miter;stroke:rgb(0%,0%,0%);stroke-opacity:1;stroke-miterlimit:10;" d="M 74.839844 127.242188 L 98.917969 122.832031 "/>
<path style="fill:none;stroke-width:1.2;stroke-linecap:butt;stroke-linejoin:miter;stroke:rgb(0%,0%,0%);stroke-opacity:1;stroke-miterlimit:10;" d="M 74.839844 127.242188 L 65.148438 119.769531 "/>
<path style="fill:none;stroke-width:1.2;stroke-linecap:butt;stroke-linejoin:miter;stroke:rgb(100%,0%,0%);stroke-opacity:1;stroke-miterlimit:10;" d="M 65.148438 119.769531 L 55.453125 112.296875 "/>
<path style="fill:none;stroke-width:1.2;stroke-linecap:butt;stroke-linejoin:miter;stroke:rgb(0%,0%,0%);stroke-opacity:1;stroke-miterlimit:10;" d="M 98.917969 122.832031 L 114.777344 141.476562 "/>
<path style="fill:none;stroke-width:1.2;stroke-linecap:butt;stroke-linejoin:miter;stroke:rgb(0%,0%,0%);stroke-opacity:1;stroke-miterlimit:10;" d="M 96.117188 128.425781 L 108.804688 143.34375 "/>
<path style="fill:none;stroke-width:1.2;stroke-linecap:butt;stroke-linejoin:miter;stroke:rgb(100%,0%,0%);stroke-opacity:1;stroke-miterlimit:10;" d="M 55.453125 112.296875 L 45.351562 119.207031 "/>
<path style="fill:none;stroke-width:1.2;stroke-linecap:butt;stroke-linejoin:miter;stroke:rgb(0%,0%,0%);stroke-opacity:1;stroke-miterlimit:10;" d="M 45.351562 119.207031 L 35.25 126.121094 "/>
<path style=" stroke:none;fill-rule:nonzero;fill:rgb(100%,100%,100%);fill-opacity:1;" d="M 51.453125 106.796875 L 59.453125 106.796875 L 59.453125 117.796875 L 51.453125 117.796875 Z M 51.453125 106.796875 "/>
<g style="fill:rgb(100%,0%,0%);fill-opacity:1;">
  <use xlink:href="#glyph0-1" x="51.453125" y="115.459961"/>
</g>
<path style="fill:none;stroke-width:1.2;stroke-linecap:butt;stroke-linejoin:miter;stroke:rgb(0%,0%,0%);stroke-opacity:1;stroke-miterlimit:10;" d="M 35.25 126.121094 L 38.699219 137.863281 "/>
<path style="fill:none;stroke-width:1.2;stroke-linecap:butt;stroke-linejoin:miter;stroke:rgb(100%,0%,0%);stroke-opacity:1;stroke-miterlimit:10;" d="M 38.699219 137.863281 L 42.152344 149.605469 "/>
<path style=" stroke:none;fill-rule:nonzero;fill:rgb(100%,100%,100%);fill-opacity:1;" d="M 38.152344 144.105469 L 46.152344 144.105469 L 46.152344 155.105469 L 38.152344 155.105469 Z M 38.152344 144.105469 "/>
<g style="fill:rgb(100%,0%,0%);fill-opacity:1;">
  <use xlink:href="#glyph0-1" x="38.152344" y="152.768555"/>
</g>
</g>
</svg>

<svg xmlns="http://www.w3.org/2000/svg" xmlns:xlink="http://www.w3.org/1999/xlink" width="300pt" height="300pt" viewBox="0 0 300 300"><defs><symbol overflow="visible"><path d="M.453 1.594v-7.938h4.5v7.938zm.5-.5h3.5v-6.938h-3.5zm0 0"/></symbol><symbol overflow="visible" id="a"><path d="M3.547-5.953c-.65 0-1.164.242-1.547.72-.375.48-.563 1.13-.563 1.952 0 .835.188 1.49.563 1.967.383.48.898.72 1.547.72.644 0 1.156-.24 1.53-.72.376-.476.564-1.132.564-1.968 0-.822-.187-1.474-.562-1.954-.375-.477-.887-.72-1.53-.72zm0-.734c.914 0 1.648.312 2.203.937.55.617.828 1.438.828 2.47 0 1.042-.277 1.87-.828 2.483-.555.617-1.29.922-2.203.922-.93 0-1.668-.305-2.22-.922C.774-1.41.5-2.237.5-3.28c0-1.033.273-1.853.828-2.47.55-.625 1.29-.938 2.22-.938zm0 0"/></symbol><symbol overflow="visible" id="b"><path d="M.89-6.563h.876v2.688H5v-2.688h.89V0H5v-3.125H1.766V0H.89zm0 0"/></symbol><symbol overflow="visible" id="c"><path d="M.89-6.563H2.08l2.906 5.485v-5.484h.86V0H4.656L1.75-5.484V0H.89zm0 0"/></symbol></defs><g><path fill="#fff" d="M0 0h300v300H0z"/><path d="M227.453 176.39l-18.644 15.856M223.047 152.313l4.406 24.078" stroke-width="1.2" stroke="#000" stroke-miterlimit="10" fill="none"/><path d="M185.75 184.027l21.605 12.29 2.903-8.137zm0 0"/><path d="M185.75 184.027l-4.41-24.078M164.215 195.66l21.535-11.633M181.34 159.95l18.648-15.86" stroke-width="1.2" stroke="#000" stroke-miterlimit="10" fill="none"/><path d="M181.34 159.95l-23.688-7.528-1.148 8.562zm0 0"/><path d="M199.988 144.09m2.61 1.484l.347-.984m2.258 2.47l.7-1.966m1.91 3.445l1.05-2.946m1.555 4.43l1.402-3.93m1.207 5.414l1.75-4.91m.856 6.39l2.1-5.89m.51 7.375l2.452-6.875m.157 8.36l2.8-7.86m-2.058 8.28l2.902-8.136" stroke="#000" stroke-miterlimit="10" fill="none"/><path d="M195.578 120.012l4.41 24.078" stroke-width="1.2" stroke="#000" stroke-miterlimit="10" fill="none"/><path d="M223.047 152.313l21.445-12.57-5.597-6.58zm0 0"/><path d="M240.727 139.164l11.527 4.113" stroke-width="1.2" stroke="#000" stroke-miterlimit="10" fill="none"/><path d="M252.254 143.277l11.527 4.11" stroke-width="1.2" stroke="#f00" stroke-miterlimit="10" fill="none"/><path d="M242.66 133.742l11.528 4.11" stroke-width="1.2" stroke="#000" stroke-miterlimit="10" fill="none"/><path d="M254.188 137.852l11.53 4.11" stroke-width="1.2" stroke="#f00" stroke-miterlimit="10" fill="none"/><path d="M241.69 136.453l-4.405-24.078" stroke-width="1.2" stroke="#000" stroke-miterlimit="10" fill="none"/><path d="M260.75 139.172h8v11h-8zm0 0" fill="#fff"/><use xlink:href="#a" x="260.75" y="147.835" fill="#f00"/><path d="M237.285 112.375l-23.058-8.22M214.227 104.156l-18.65 15.856" stroke-width="1.2" stroke="#000" stroke-miterlimit="10" fill="none"/><path d="M214.227 104.156m-.02-3l-1.027.188m1.007-3.188l-2.05.375m2.03-3.374l-3.077.563m3.058-3.564l-4.1.75m4.08-3.75l-5.128.938m5.11-3.938l-6.153 1.125m6.133-4.124l-7.18 1.313m7.16-4.314l-8.203 1.5m8.2-2.36l-8.5 1.56M195.578 120.012m-2.605-1.48l-.352.98m-2.257-2.465l-.7 1.965m-1.91-3.45l-1.046 2.946m-1.56-4.43l-1.4 3.93m-1.208-5.41l-1.75 4.91m-.856-6.395l-2.102 5.895m-.508-7.38l-2.45 6.876m-.155-8.356l-2.806 7.856m2.06-8.28l-2.904 8.135" stroke="#000" stroke-miterlimit="10" fill="none"/><path d="M157.523 106.293h15v11h-15zm0 0" fill="#fff"/><g fill="#f00"><use xlink:href="#b" x="157.523" y="114.956"/><use xlink:href="#a" x="164.538" y="114.956"/></g><path d="M202.816 74.578h15v11h-15zm0 0" fill="#fff"/><g fill="#f00"><use xlink:href="#b" x="202.816" y="83.241"/><use xlink:href="#a" x="209.831" y="83.241"/></g><path d="M159.613 155.332l-5.816-10.766" stroke-width="1.2" stroke="#000" stroke-miterlimit="10" fill="none"/><path d="M153.797 144.566l-5.82-10.77" stroke-width="1.2" stroke="#f00" stroke-miterlimit="10" fill="none"/><path d="M154.543 158.07l-5.816-10.77" stroke-width="1.2" stroke="#000" stroke-miterlimit="10" fill="none"/><path d="M148.727 147.3l-5.817-10.765" stroke-width="1.2" stroke="#f00" stroke-miterlimit="10" fill="none"/><path d="M157.078 156.703l-5.293 11.035" stroke-width="1.2" stroke="#000" stroke-miterlimit="10" fill="none"/><path d="M151.785 167.738l-5.293 11.035" stroke-width="1.2" stroke="#00f" stroke-miterlimit="10" fill="none"/><path d="M137.445 129.664h8v11h-8zm0 0" fill="#fff"/><use xlink:href="#a" x="137.445" y="138.327" fill="#f00"/><path d="M146.492 178.773l8.86 8.446" stroke-width="1.2" stroke="#00f" stroke-miterlimit="10" fill="none"/><path d="M155.352 187.22l8.863 8.44" stroke-width="1.2" stroke="#000" stroke-miterlimit="10" fill="none"/><path d="M146.492 178.773l-12.04 2.204" stroke-width="1.2" stroke="#00f" stroke-miterlimit="10" fill="none"/><path d="M134.453 180.977l-12.04 2.207" stroke-width="1.2" stroke="#000" stroke-miterlimit="10" fill="none"/><path d="M143.492 173.273h7v11h-7zm0 0" fill="#fff"/><use xlink:href="#c" x="143.492" y="181.937" fill="#00f"/><path d="M161.36 195.277l-1.626 12.133" stroke-width="1.2" stroke="#000" stroke-miterlimit="10" fill="none"/><path d="M159.734 207.41l-1.62 12.133" stroke-width="1.2" stroke="#f00" stroke-miterlimit="10" fill="none"/><path d="M167.066 196.043l-1.62 12.133" stroke-width="1.2" stroke="#000" stroke-miterlimit="10" fill="none"/><path d="M165.445 208.176l-1.625 12.13" stroke-width="1.2" stroke="#f00" stroke-miterlimit="10" fill="none"/><path d="M156.965 214.422h8v11h-8zm0 0" fill="#fff"/><use xlink:href="#a" x="156.965" y="223.085" fill="#f00"/><path d="M122.414 183.184l-15.855-18.65M106.56 164.535l-24.08 4.41M103.113 159.313l-19.265 3.527M114.777 141.477l-8.218 23.058M82.48 168.945l-15.86-18.648M66.62 150.297l8.22-23.055M62.02 146.06l6.574-18.447" stroke-width="1.2" stroke="#000" stroke-miterlimit="10" fill="none"/><path d="M42.152 149.605l12.235.344" stroke-width="1.2" stroke="#f00" stroke-miterlimit="10" fill="none"/><path d="M54.387 149.95l12.234.347M74.84 127.242l24.078-4.41M74.84 127.242l-9.692-7.472" stroke-width="1.2" stroke="#000" stroke-miterlimit="10" fill="none"/><path d="M65.148 119.77l-9.695-7.473" stroke-width="1.2" stroke="#f00" stroke-miterlimit="10" fill="none"/><path d="M98.918 122.832l15.86 18.645M96.117 128.426l12.688 14.918" stroke-width="1.2" stroke="#000" stroke-miterlimit="10" fill="none"/><path d="M55.453 112.297l-10.1 6.91" stroke-width="1.2" stroke="#f00" stroke-miterlimit="10" fill="none"/><path d="M45.352 119.207L35.25 126.12" stroke-width="1.2" stroke="#000" stroke-miterlimit="10" fill="none"/><path d="M51.453 106.797h8v11h-8zm0 0" fill="#fff"/><use xlink:href="#a" x="51.453" y="115.46" fill="#f00"/><path d="M35.25 126.12l3.45 11.743" stroke-width="1.2" stroke="#000" stroke-miterlimit="10" fill="none"/><path d="M38.7 137.863l3.452 11.742" stroke-width="1.2" stroke="#f00" stroke-miterlimit="10" fill="none"/><path d="M38.152 144.105h8v11h-8zm0 0" fill="#fff"/><use xlink:href="#a" x="38.152" y="152.769" fill="#f00"/></g></svg>
